Numix-Light/16/status/indicator-keyboard-Cr.svg

<?xml version="1.0" encoding="UTF-8" standalone="no"?>
<svg
   xmlns:dc="http://purl.org/dc/elements/1.1/"
   xmlns:cc="http://creativecommons.org/ns#"
   xmlns:rdf="http://www.w3.org/1999/02/22-rdf-syntax-ns#"
   xmlns:svg="http://www.w3.org/2000/svg"
   xmlns="http://www.w3.org/2000/svg"
   xmlns:sodipodi="http://sodipodi.sourceforge.net/DTD/sodipodi-0.dtd"
   xmlns:inkscape="http://www.inkscape.org/namespaces/inkscape"
   viewBox="0 0 16 16"
   id="svg2"
   version="1.1"
   inkscape:version="0.91 r13725"
   sodipodi:docname="indicator-keyboard-Cr.svg">
  <metadata
     id="metadata13">
    <rdf:RDF>
      <cc:Work
         rdf:about="">
        <dc:format>image/svg+xml</dc:format>
        <dc:type
           rdf:resource="http://purl.org/dc/dcmitype/StillImage" />
      </cc:Work>
    </rdf:RDF>
  </metadata>
  <defs
     id="defs11" />
  <sodipodi:namedview
     pagecolor="#ffffff"
     bordercolor="#666666"
     borderopacity="1"
     objecttolerance="10"
     gridtolerance="10"
     guidetolerance="10"
     inkscape:pageopacity="0"
     inkscape:pageshadow="2"
     inkscape:window-width="640"
     inkscape:window-height="480"
     id="namedview9"
     showgrid="false"
     inkscape:zoom="14.75"
     inkscape:cx="8"
     inkscape:cy="8"
     inkscape:window-x="65"
     inkscape:window-y="24"
     inkscape:window-maximized="0"
     inkscape:current-layer="svg2" />
  <path
     style="fill:#353535;fill-opacity:1"
     d="M 1.5996094 0 C 0.71320937 2.9605947e-16 0 0.71320937 0 1.5996094 L 0 14.400391 C 2.9605947e-16 15.286791 0.71320937 16 1.5996094 16 L 14.400391 16 C 15.286791 16 16 15.286791 16 14.400391 L 16 1.5996094 C 16 0.71320937 15.286791 0 14.400391 0 L 1.5996094 0 z M 6.7871094 4.7460938 C 7.0211094 4.7460938 7.2357344 4.7610156 7.4277344 4.7910156 C 7.6197344 4.8210156 7.7876406 4.8602031 7.9316406 4.9082031 C 8.0756406 4.9502031 8.1987813 4.9949688 8.3007812 5.0429688 C 8.4027812 5.0849687 8.4792031 5.1241563 8.5332031 5.1601562 L 8.3359375 5.6914062 C 8.1859375 5.6014063 7.9937656 5.5136875 7.7597656 5.4296875 C 7.5317656 5.3396875 7.2462969 5.2949219 6.9042969 5.2949219 C 6.5142969 5.2949219 6.1729063 5.3621406 5.8789062 5.4941406 C 5.5909063 5.6261406 5.3483906 5.8107813 5.1503906 6.0507812 C 4.9523906 6.2907813 4.8012188 6.57625 4.6992188 6.90625 C 4.6032187 7.23625 4.5566406 7.6019062 4.5566406 8.0039062 C 4.5566406 8.4179063 4.6032187 8.7929062 4.6992188 9.1289062 C 4.8012188 9.4589063 4.948625 9.7406094 5.140625 9.9746094 C 5.332625 10.20861 5.56775 10.389625 5.84375 10.515625 C 6.12575 10.641625 6.4466406 10.705078 6.8066406 10.705078 C 7.2026406 10.705078 7.5309219 10.667703 7.7949219 10.595703 C 8.0649219 10.517703 8.2702031 10.441281 8.4082031 10.363281 L 8.578125 10.884766 C 8.536125 10.914766 8.4652813 10.950187 8.3632812 10.992188 C 8.2612812 11.028188 8.1325625 11.067375 7.9765625 11.109375 C 7.8205625 11.151375 7.6395469 11.184984 7.4355469 11.208984 C 7.2315469 11.238984 7.0039531 11.253906 6.7519531 11.253906 C 6.3499531 11.253906 5.9749531 11.181109 5.6269531 11.037109 C 5.2849531 10.893109 4.9845625 10.684203 4.7265625 10.408203 C 4.4745625 10.132203 4.2730469 9.792625 4.1230469 9.390625 C 3.9790469 8.982625 3.9082031 8.5180938 3.9082031 7.9960938 C 3.9082031 7.4740938 3.9865781 7.011375 4.1425781 6.609375 C 4.3045781 6.201375 4.51725 5.8599844 4.78125 5.5839844 C 5.04525 5.3079844 5.3512187 5.1008906 5.6992188 4.9628906 C 6.0472188 4.8188906 6.4091094 4.7460938 6.7871094 4.7460938 z M 11.191406 6.375 C 11.383406 6.375 11.564422 6.3899219 11.732422 6.4199219 C 11.906422 6.4499219 12.025797 6.4797656 12.091797 6.5097656 L 11.974609 7.0136719 C 11.926609 6.9896719 11.827734 6.9673594 11.677734 6.9433594 C 11.533734 6.9133594 11.341563 6.8984375 11.101562 6.8984375 C 10.849562 6.8984375 10.646234 6.9151719 10.490234 6.9511719 C 10.340234 6.9871719 10.241359 7.0170156 10.193359 7.0410156 L 10.193359 11.119141 L 9.6074219 11.119141 L 9.6074219 6.6816406 C 9.7574219 6.6156406 9.9645153 6.550375 10.228516 6.484375 C 10.492516 6.412375 10.813406 6.375 11.191406 6.375 z "
     id="path4" />
</svg>

<svg xmlns="http://www.w3.org/2000/svg" viewBox="0 0 16 16">
 <path d="m 1.6 0 c -0.886 0 -1.6 0.713 -1.6 1.6 l 0 12.801 c 0 0.886 0.713 1.6 1.6 1.6 l 12.801 0 c 0.886 0 1.6 -0.713 1.6 -1.6 l 0 -12.801 c 0 -0.886 -0.713 -1.6 -1.6 -1.6 l -12.801 0 z m 5.188 4.746 c 0.234 0 0.449 0.015 0.641 0.045 c 0.192 0.03 0.36 0.069 0.504 0.117 c 0.144 0.042 0.267 0.087 0.369 0.135 c 0.102 0.042 0.178 0.081 0.232 0.117 l -0.197 0.531 c -0.15 -0.09 -0.342 -0.178 -0.576 -0.262 c -0.228 -0.09 -0.513 -0.135 -0.855 -0.135 c -0.39 0 -0.731 0.067 -1.025 0.199 c -0.288 0.132 -0.531 0.317 -0.729 0.557 c -0.198 0.24 -0.349 0.525 -0.451 0.855 c -0.096 0.33 -0.143 0.696 -0.143 1.098 c 0 0.414 0.047 0.789 0.143 1.125 c 0.102 0.33 0.249 0.612 0.441 0.846 c 0.192 0.234 0.427 0.415 0.703 0.541 c 0.282 0.126 0.603 0.189 0.963 0.189 c 0.396 0 0.724 -0.037 0.988 -0.109 c 0.27 -0.078 0.475 -0.154 0.613 -0.232 l 0.17 0.521 c -0.042 0.03 -0.113 0.065 -0.215 0.107 c -0.102 0.036 -0.231 0.075 -0.387 0.117 c -0.156 0.042 -0.337 0.076 -0.541 0.1 c -0.204 0.03 -0.432 0.045 -0.684 0.045 c -0.402 0 -0.777 -0.073 -1.125 -0.217 c -0.342 -0.144 -0.642 -0.353 -0.9 -0.629 c -0.252 -0.276 -0.454 -0.616 -0.604 -1.018 c -0.144 -0.408 -0.215 -0.873 -0.215 -1.395 c 0 -0.522 0.078 -0.985 0.234 -1.387 c 0.162 -0.408 0.375 -0.749 0.639 -1.025 c 0.264 -0.276 0.57 -0.483 0.918 -0.621 c 0.348 -0.144 0.71 -0.217 1.088 -0.217 z m 4.404 1.629 c 0.192 0 0.373 0.015 0.541 0.045 c 0.174 0.03 0.293 0.06 0.359 0.09 l -0.117 0.504 c -0.048 -0.024 -0.147 -0.046 -0.297 -0.07 c -0.144 -0.03 -0.336 -0.045 -0.576 -0.045 c -0.252 0 -0.455 0.017 -0.611 0.053 c -0.15 0.036 -0.249 0.066 -0.297 0.09 l 0 4.078 l -0.586 0 l 0 -4.438 c 0.15 -0.066 0.357 -0.131 0.621 -0.197 c 0.264 -0.072 0.585 -0.109 0.963 -0.109 z" style="fill:#353535;fill-opacity:1"/>
</svg>
